X:25
%%etbk:tnset id:9,pos:2,rep:3x,ant:
%%etbk:wsite http://www.thesession.org/tunes/display/999
%%etbk:pldat 2016-09-09T18:08,2016-07-25T18:25,2015-12-16T16:30,2015-12-06T14:22,2015-11-29T14:00,2015-11-24T18:22,2015-03-24T15:43,2015-01-28T17:18,2015-01-27T16:15,2014-09-25T18:20,2014-05-21T19:00,2014-04-09T16:29,2014-03-27T18:27,2014-03-13T18:39,2014-03-01T17:09,2014-02-15T15:53,2014-02-13T18:08,2014-02-08T15:00,2013-12-11T17:10,2013-11-20T15:10
T: Dan Breen's
Z: Piano Box Version by Martin Fleischmann
H: Created 2013-02-19 /  Last Modified 2013-02-19
M: 4/4
L: 1/8
R: reel
K: Ador
|: !5!e!1!A!4!d!2!B !1!AB!1!A!2!G | !1!E!3!AA!2!G !1!AA!2!B!4!d | !5!eAdB AB!1!A!2!G | !1!E!3!GG!2!F !1!G4:|
|: !3!ee!2!d!5!g !3!e!2!d!1!Bd | !3!e!1!A!2!A!1!A !5!e!1!A !3!(3A!2!A!1!A | !3!eedg !3!edBd | !2!d2 ef !5!g4:|


